img/touch-card-img-02.svg

<svg width="57" height="71" viewBox="0 0 57 71" fill="none" xmlns="http://www.w3.org/2000/svg">
<path d="M28.5 42C36.4967 42 43 35.721 43 28C43 20.279 36.4967 14 28.5 14C20.5032 14 14 20.279 14 28C14 35.721 20.5032 42 28.5 42ZM28.5 21C32.4984 21 35.75 24.1395 35.75 28C35.75 31.8605 32.4984 35 28.5 35C24.5016 35 21.25 31.8605 21.25 28C21.25 24.1395 24.5016 21 28.5 21Z" fill="#FFFFFF"/>
<path d="M26.4338 70.3403C27.0367 70.7693 27.7591 71 28.5 71C29.2409 71 29.9633 70.7693 30.5662 70.3403C31.6492 69.577 57.103 51.2624 56.9997 28.4002C56.9997 12.7411 44.214 0 28.5 0C12.786 0 0.000313631 12.7411 0.000313631 28.3825C-0.102998 51.2624 25.3508 69.577 26.4338 70.3403ZM28.5 7.10006C40.2882 7.10006 49.8748 16.6532 49.8748 28.418C49.9496 44.173 34.2427 58.3199 28.5 62.9598C22.7609 58.3163 7.05042 44.1659 7.12524 28.4002C7.12524 16.6532 16.7118 7.10006 28.5 7.10006Z" fill="#FFFFFF"/>
</svg>

<svg width="57" height="71" fill="none" xmlns="http://www.w3.org/2000/svg"><path d="M28.5 42C36.497 42 43 35.721 43 28s-6.503-14-14.5-14S14 20.279 14 28s6.503 14 14.5 14Zm0-21c3.998 0 7.25 3.14 7.25 7s-3.252 7-7.25 7-7.25-3.14-7.25-7 3.252-7 7.25-7Z" fill="#FFF"/><path d="M26.434 70.34a3.564 3.564 0 0 0 4.132 0C31.65 69.577 57.103 51.262 57 28.4 57 12.741 44.214 0 28.5 0S0 12.741 0 28.383c-.103 22.88 25.35 41.194 26.434 41.957ZM28.5 7.1c11.788 0 21.375 9.553 21.375 21.318C49.95 44.173 34.243 58.32 28.5 62.96 22.76 58.316 7.05 44.166 7.125 28.4c0-11.747 9.587-21.3 21.375-21.3Z" fill="#FFF"/></svg>
